X:45
T:1. Gaillarde
C:Tielman Susato
B:Tielman Susato: Danserye (1551) no. 45
R:Galliard
Z:Transcribed by Frank Nordberg - http://www.musicaviva.com
F:http://abc.musicaviva.com/tunes/susato-tielman/susato-1551-45.abc
M:3/2
L:1/2
K:Ddor
V:1
DDD|F>ED|C2D|E2A,|CDE|G2F|ED2|^C2z:|
|:FFE|F2A|GEF|E>D E/F/|G/F/E/D/C/B,/|A,FE|D2^C|D2z:|
V:2
A,A,_B,|D>CA,|A,2A,|C2C|A,A,C|D>C A,/B,/|CA,G,|A,2z:|
|:CCC|C2C|CCC|C2G,|G,B,A,|C2C|A,A,2|A,2z:|
V:3
D,F,G,|A,>G,F,|E,2F,|G,2F,|E,F,G,|_B,2A,-|A,/G,/F,D,|E,2z:|
|:A,A,G,|A,2F,|G,G,A,|G,>F, G,/A,/|B,/A,/G,/F,/E,|F,A,G,|F,E,2|D,2z:|
V:4
D,D,G,,|D,2D,|A,,2D,|C,2F,,|A,,D,C,|G,,2D,|C,D,_B,,|A,,2z:|
|:F,,F,,C,|F,,2F,,|C,C,F,|C,2C,|G,,2A,,|F,,2C,|D,A,,2|D,2z:|
W:
W:
W:  From Musica Viva - http://www.musicaviva.com
W:  the Internet center for free sheet music downloads.
